src/components/img/icons/clear-black.svg

<?xml version="1.0" encoding="UTF-8"?>
<svg width="48px" height="48px" viewBox="0 0 48 48" version="1.1" xmlns="http://www.w3.org/2000/svg" xmlns:xlink="http://www.w3.org/1999/xlink">
    <title>Clear</title>
    <g id="Icon/clear-black" stroke="none" stroke-width="1" fill="none" fill-rule="evenodd">
        <path d="M24,4 C35.04,4 44,12.96 44,24 C44,35.04 35.04,44 24,44 C12.96,44 4,35.04 4,24 C4,12.96 12.96,4 24,4 Z M31.0710678,14.1005051 L24,21.172 L16.9289322,14.1005051 L14.1005051,16.9289322 L21.172,24 L14.1005051,31.0710678 L16.9289322,33.8994949 L24,26.828 L31.0710678,33.8994949 L33.8994949,31.0710678 L26.828,24 L33.8994949,16.9289322 L31.0710678,14.1005051 Z" id="Shape" fill="#000000"></path>
    </g>
</svg>

<?xml version="1.0" encoding="UTF-8"?>
<svg width="48px" height="48px" version="1.1" id="Layer_1" xmlns="http://www.w3.org/2000/svg" xmlns:xlink="http://www.w3.org/1999/xlink" x="0px" y="0px"
	 viewBox="0 0 48 48" style="enable-background:new 0 0 48 48;" xml:space="preserve">
   <title>Clear</title>
<style type="text/css">
	.st0-black{fill:#000;}
</style>
<path class="st0-black" d="M24,4c11,0,20,9,20,20s-9,20-20,20S4,35,4,24S13,4,24,4z M31.1,14.1L24,21.2l-7.1-7.1l-2.8,2.8l7.1,7.1
	l-7.1,7.1l2.8,2.8l7.1-7.1l7.1,7.1l2.8-2.8L26.8,24l7.1-7.1L31.1,14.1L31.1,14.1z"/>
</svg>
